!!!OTL: SIE GLEICHT WOL EINEM ROSENSTOCK
!!!ARE: Europa, Mitteleuropa, Deutschland
!!!SCT: E0426
!!!YEM: Copyright 1995, estate of Helmut Schaffrath.
**kern
*ICvox
*Ivox
*M3/4
*k[f#]
*G:
{4g
=1
2g
4d
=2
2g
4cc
=3
2b
4a
=4
2g}
{4d
=5
2g
4a
=6
2b
4cc
=7
4b
2a
=8
4g
8f#
8e
4f#
=9
2g}
{4g
=10
2g
4d
=11
2g
4cc
=12
2b
4a
=13
2g}
{4d
=14
2g
4a
=15
2b
4cc
=16
4b
2a
=17
4g
8f#
8e
4f#
=18
2g}
{4g
=19
2b
4b
=20
4.a
8b
4cc
=21
2dd
4cc
=22
2dd}
{4b
=23
2b
4b
=24
4.a
8b
4cc
=25
2dd
4cc
=26
2dd}
{4b
=27
2b
4b
=28
2b
4a
=29
2g
4f#
=30
2g
4r}
=31
{2g
4a
=32
2b
4cc
=33
4b
2a
=34
4g
8f#
8e
4f#
=35
2g}
==
!!!AGN: Liebes - Lied
!!!ONB: ESAC (Essen Associative Code) Database: ERK1
!!!AMT: simple triple
!!!AIN: vox
!!!EED: Helmut Schaffrath
!!!EEV: 1.0
*-
